X: 42
T:Inisheer
R:waltz
D:Buttons and Bows, First Month of Summer
Z:added by Alf Warnock - alf0@rogers.com - www.alfwarnock.info/alfs
M:3/4
L:1/8
K:G
D2|:"G"B3A Bd|"Em"B3A Bd|"Am"E3B AB|"D7"D4 D2|
"G"B3A Bd|"Em"B3A Bd|"C"G3B "D7"(3AGF|[1"G"G4 D2:|[2 "G" G3 A Bd|
|:"Em"e3f ed|"Bm"B3A Bd|"Em"ef ed Bd|"Em"e4 Bd|
"Em"e3f ed|"Bm"B3A Bd|"C"E3B "D7"(3AGF|"G"G3A Bd|
"Em"e3f ed|"Bm"B3A Bd| "G"gf ed Bd|"Em"e4 Bd|
"Em"e3f ed|"Bm"B3A Bd|"D7"D3B (3AGF|"G"G4 D2||
